!!!!SEGMENT: pl-kc--40102-iii-1-saf--002-013_zielenski-mikolaj--communiones-totius-anni-dominica-in-septuagesima-illumina-faciem-tuam.krn
!!!cenid: 16xx:1544
!!!COM: Zieleński, Mikołaj
!!!COM-rismid: pe30013481
!!!CDT: <1611->1611
!!!CNT: Polish
!!!GTL: Communiones totius anni
!!!OTL: Dominica in Septuagesima/Illumina faciem tuam
!!!OMV: 013
!!!PDT: 1611
!!!AGN:
!!!SMS-siglum: PL-Kc
!!!SMS-shelfmark: 40102 III/1 Saf.
!!!SMS-shelfwork: 002-013 G
!!!SMS-variant:
!!!SMS-altvar:
!!!NIFC-rismid: 990069887
!!!URL-scan: https://cyfrowe.mnk.pl/dlibra/publication/24235/edition/23926/content?ref=desc
!!!ONB-nifc: UWAGA: str. 51-52. Uwaga: W xml metrum 2/1 do źródłowego C| i odpowiednio 3/1 do 3/2
!!!AIN: 2 organ
!!!key: G:mix
**kern	**kern
*group1	*group1
*part2	*part1
*staff2	*staff1
*I""Organo	*
*Iorgan	*Iorgan
*ICklav	*ICklav
*clefC3	*clefC1
*k[b-]	*k[b-]
*G:mix	*G:mix
*M2/1	*M2/1
*met(C|)	*met(C|)
=1	=1
!LO:TX:t=P:problem=all/middle&colon; global	!LO:TX:t=P:problem=all/middle&colon; global
!LO:TX:t=P:problem=all\middle&colon; global	!LO:TX:t=P:problem=all/middle&colon; global
!LO:TX:a:t=Illumina faciem tuam.	!LO:TX:a:t=13. Dominica in Septuageſima. Solus Baſsus caner.
1r	1g
1d	2.dd\
.	4dd\
=2-	=2-
2.g\	2dd\
.	1b-
4g\	.
2g\	.
2e-X\	4a\
.	4g/
=3	=3
1G	2b-\
.	1b-
2.d\	.
.	4a\
4d\	4g/
=4-	=4-
2d\	2a\
2B-/	2dd\
*clefF4	*
*k[b-]	*
1GG	2dd\
.	4cc\
.	4b-\
=5	=5
2.D/	2a\
.	1f
4D/	.
2D/	.
2.BB-/	1b-\
=6-	=6-
.	.
4BB-/	.
2FF/	2.cc\
1C	.
.	8b-\
.	8a\
.	4g/
.	4a\
=7	=7
2GG/	4b-\
.	4a\
1G	4b-\
.	4cc\
.	2.dd\
2F#X\	.
.	4cc\
=8-	=8-
2G\	4b-\
.	8a\
.	8b-\
2B-\	4a\
.	4g/
2A\	1a
2AA/	.
=9	=9
1D	2a\
.	1dd
2B-\	.
2c\	2cc\
=10-	=10-
2d\	2b-\
1G	2b-\
.	1a
2F\	.
=11	=11
2E-X\	2g/
2E-\	1gg
1D	.
.	2ff\
=12-	=12-
2r	2ee-X\
1C	2ee-\
.	1dd
2BB-/	.
=13	=13
2AA/	2r
2AA/	1cc
2GG/	.
1D\	2b-\
=14-	=14-
.	2.a\
1F	.
.	4g/
.	4a\
.	4b-\
[<2C/	4cc\
.	4dd\
=15	=15
2C/]	4cc\
.	4g/
2.G\	2.b-\
4G\	4b-\
2F#X\	2a\
=16-	=16-
1G	2b-\
.	2g/
2Fny\	2a\
2F\	4d/
.	4e/
=17	=17
1D	4f/
.	4g/
.	4a\
.	8g\
.	8a\
2r	2b-\
1BB-/	2.dd\
=18-	=18-
.	.
.	4cc\
2GG/	4b-\
.	4a\
!LO:TX:b:t=Partitura Nicolai Zielenski.	!
1GG	4b-\
.	4g\
.	2.b-\
=19	=19
2r	.
.	8a\
.	8b-\
1E-X	4a\
.	4g\
.	1b-
2D/	.
=20-	=20-
1D	2a\
.	2dd\
2A\	2cc\
2G\	2b-\
=21	=21
2F\	2a\
2E-X\	2g/
1D	2r
.	2dd\
=22-	=22-
2A\	2cc\
2D/	2.b-\
!LO:TX:b:t=G	!
2C/	.
.	4a\
2BB-/	[y2dd\
*custos:AA	*custos:cc
!LO:PB:g=original	!LO:PB:g=original
=23	=23
!	!LO:N:xstem:cue
1AA	4dd\]
.	8cc#X\
.	8b-\
.	2cc#\
1D	2dd\
.	4r
.	4a\
=24-	=24-
2c\	2g/
2d\	2f/
2A\	2e/
2F\	4r
.	4f/
=25	=25
2E-X\	2g/
2D/	2a\
2GG/	2.b-\
2.G\	.
.	4cc\
=26-	=26-
.	2dd\
4F\	.
4E-X\	2g/
4D/	.
2C/	4a\
.	4g/
2GG/	[y2g
=27	=27
!	!LO:N:xstem:cue
1D	4g]
.	8f#X/
.	8e/
.	2f#/
1GG	2g/
.	2.dd\
=28-	=28-
2r	.
.	4dd\
2.G\	2dd\
.	2.b-\
4G\	.
[<2G\	.
.	4a\
=29	=29
2G]	4b-\
.	4g/
1D	1a
2B-\	2.dd\
=30-	=30-
1A	.
.	8cc#X\
.	8b-\
.	2cc#\
1D	2dd\
.	[<2a\
=31	=31
2r	4a]
.	4a\
2.BB-/	2b-\
.	2.dd\
4BB-/	.
1BB-/	.
.	4cc\
=32-	=32-
.	4b-\
.	4a\
1GG	2.b-\
.	4a\
2E-X\	[y2g/
=33	=33
!	!LO:N:xstem:cue
2D/	4g/]
.	8f#X/
.	8e/
2D/	2f#/
1GG	4g/
.	4a\
.	4b-\
.	4cc\
=34-	=34-
2r	4dd\
.	4g/
1C	4cc\
.	4dd\
.	4ee-X\
.	4cc\
!LO:N:acc=#	!
2BBn/	2dd\
=35	=35
00C/	2g/
.	2g/
.	2.ee\
.	4dd\
=36-	=36-
.	2cc\
.	1g
.	.
.	2g\
=37-	=37-
1ryy	1.cc
1C	.
!	!LO:N:acc=#
.	4bn\
.	4a\
=38-	=38-
00GG/	00bny\
==	==
*-	*-
!!!system-decoration: g1
!!!RDF**kern: l = terminal long
!!!RDF**kern: > = above
!!!RDF**kern: < = below
!!!ENC: Andrzej Gręziak
!!!END: 2021-12-17
!!!EED: Jędrzej Mróz
!!!EST: 2021-12-23
